X:74
T:Maréchal nous voilà
R:
C:
H:
N:
D:André Dassary 
A:Paroles : A.Montagard - Musique : A.Montagard, C.Courtioux - 1941
O:
Z:
M:C
L:1/4
%%textfont Helvetica 9
%%text Paroles : A.Montagard 
%%text Musique : A.Montagard, C.Courtioux
%%textfont Helvetica 8
%%text (1941)
Q:1/4=125
K:C
"Couplets" c B/ A/ GA | c2 c2 | c B/ A/ GA | B2-B2 |\
d c/ B/ AB |(d2 A2)| c B/ A/ GA | e2-e2 |
c B/ A/ GA | c2 c2 | c d/ e/ dc | A2-A2 |\
d c/ B/ Ac |(e2 G2)| A B/ c/ Bc | d2-d2 ||
"Refrain" E/G/ c3 | e/d/ c3 | e/d/ c e/d/ c | B/c/ d2 A |\
A/A/ d3 | f/e/ d3 | d/c/ B B/A/ G | G/F/ E3 |
E/G/ c3 | e/d/ c3 | e/d/ c e/d/ c | d/e/ f3 |\
A/A/ f3 | e/d/ e3 | A/A/ B c/c/ d | c/B/ c3 ||
W:Une flamme sacrée
W:Monte du sol natal
W:Et la France enivrée
W:Te salue Maréchal !
W:Tous tes enfants qui t'aiment
W:Et vénèrent tes ans
W:A ton appel suprême
W:Ont répondu "Présent"
W:
W:         Maréchal nous voilà !
W:         Devant toi, le sauveur de la France
W:         Nous jurons, nous, tes gars
W:         De servir et de suivre tes pas
W:         Maréchal nous voilà !
W:         Tu nous as redonné l'espérance
W:         La Patrie renaîtra !
W:         Maréchal, Maréchal, nous voilà ! 
W:
W:Tu as lutté sans cesse
W:Pour le salut commun
W:On parle avec tendresse
W:Du héros de Verdun
W:En nous donnant ta vie
W:Ton génie et ta foi
W:Tu sauves la Patrie
W:Une seconde fois :
W:
W:Quand ta voix nous répète
W:Afin de nous unir :
W:"Français levons la tête,
W:Regardons l'avenir !"
W:Nous, brandissant la toile
W:Du drapeau immortel,
W:Dans l'or de tes étoiles,
W:Nous voyons luire un ciel :
W:
W:La guerre est inhumaine
W:Quel triste épouvantail !
W:N'écoutons plus la haine
W:Exaltons le travail
W:Et gardons confiance
W:Dans un nouveau destin
W:Car Pétain, c'est la France,
W:La France, c'est Pétain !
 


